exported-svg/mouse-pointer.svg

<svg height="24" viewBox="0 0 24 24" width="24" xmlns="http://www.w3.org/2000/svg"><path d="m14.0034275 13.2963207 5.8515501 5.8515501c.1952621.1952622.1952621.5118446 0 .7071068-.1952622.1952621-.5118446.1952621-.7071068 0l-5.8515501-5.8515501-2.2514594 6.6287987c-.148214.4363753-.7577481.4569018-.9349836.0314864l-7.07000001-16.97000002c-.17169107-.41210714.24172775-.82552596.65383489-.65383489l16.97000002 7.07000001c.4254154.1772355.4048889.7867696-.0314864.9349836zm-9.57352622-8.86641942 6.09388972 14.62705922 2.0841961-6.1363384c.049972-.1471288.1655062-.262663.312635-.312635l6.1363384-2.0841961z"/></svg>

<?xml version="1.0" encoding="UTF-8"?>
<svg width="24px" height="24px" viewBox="0 0 24 24" version="1.1" xmlns="http://www.w3.org/2000/svg" xmlns:xlink="http://www.w3.org/1999/xlink">
    <!-- Generator: Sketch 55.2 (78181) - https://sketchapp.com -->
    <title>mouse-pointer</title>
    <desc>Created with Sketch.</desc>
    <g id="mouse-pointer" stroke="none" stroke-width="1" fill="none" fill-rule="evenodd">
        <path d="M14.0034275,13.2963207 L19.8549776,19.1478708 C20.0502397,19.343133 20.0502397,19.6597154 19.8549776,19.8549776 C19.6597154,20.0502397 19.343133,20.0502397 19.1478708,19.8549776 L13.2963207,14.0034275 L11.0448613,20.6322262 C10.8966473,21.0686015 10.2871132,21.089128 10.1098777,20.6637126 L3.03987769,3.69371258 C2.86818662,3.28160544 3.28160544,2.86818662 3.69371258,3.03987769 L20.6637126,10.1098777 C21.089128,10.2871132 21.0686015,10.8966473 20.6322262,11.0448613 L14.0034275,13.2963207 Z M4.42990128,4.42990128 L10.523791,19.0569605 L12.6079871,12.9206221 C12.6579591,12.7734933 12.7734933,12.6579591 12.9206221,12.6079871 L19.0569605,10.523791 L4.42990128,4.42990128 Z" id="Combined-Shape" fill="#000000" fill-rule="nonzero"></path>
    </g>
</svg>
